X:276
T: MAEDCHEN SAG MIRS FUER GEWISS
N: E1420A
O: Europa, Mitteleuropa, Deutschland, Rheinpfalz
R: Staende -, Soldaten - Lied
M: 4/4
L: 1/8
K: G
 | D2G2F2A2 | G2E2D4 |
B2B2A2d2 | c2B2A4 |
A2A2A2GA | B2d2B2G2 |
A2A2A2GA | B2d2B2G2 |
c4B2B2 | edced2z2 |
c4B2G2 | BAAFG2z2

@@@ Tune index: 4960
